X: 2007
T: Yâ Men Yuhibbu
C: Tanburî Ali Efendi
O: Turkey
F: http://compmusic.upf.edu/node/140
N: rast--sugul--duyek--ya_men--tanburi_ali_efendi
N: makam= rast
N: form= sugul
N: usul= duyek = 8/4
M: 8/4
L: 1/16
K: C _1/4B ^f  
Q: 1/4=120
%%MIDI tuningsystem comma53
z2 e4 {=f}ed d6 c2  | e4 e2 d2 d2 c2 B2 A2  | \
w:  Yâ  *  *  *  men  yu  |  hib bu  e nî  | 
G2 A2 B2 c2 d2 e2 d2 c2  | 
w:  nul  *  ab *  di  *  fi  | 
B3G A2 B2 c4 z4  | z2 d4 {e}dc B6 e2  | \
w:  fin *  ne de mi    |  Yâ  *  *  *  men  yu  | 
e2 d2 d2 c2 B3A G4  | A2 B2 c2 {d}cB B2 {c}BA A2 {B}AG  | 
w:  hib bu  e nî  |  nul  *  ab *  di  *  fi *  fin *  ne de mi    | 
B2 {c}BA A2 {B}AG G4 z4  | |


